src/main/resources/icons/traffic-low.svg

<?xml version="1.0" encoding="UTF-8" standalone="no"?>
<!-- Created with Inkscape (http://www.inkscape.org/) -->

<svg
        width="4.7624817mm"
        height="3.6090927mm"
        viewBox="0 0 4.7624817 3.6090927"
        version="1.1"
        id="svg5"
        xml:space="preserve"
        inkscape:version="1.2 (dc2aedaf03, 2022-05-15)"
        sodipodi:docname="small-icons-demo.svg"
        xmlns:inkscape="http://www.inkscape.org/namespaces/inkscape"
        xmlns:sodipodi="http://sodipodi.sourceforge.net/DTD/sodipodi-0.dtd"
        xmlns="http://www.w3.org/2000/svg"
><sodipodi:namedview
     id="namedview7"
     pagecolor="#ffffff"
     bordercolor="#000000"
     borderopacity="0.25"
     inkscape:showpageshadow="2"
     inkscape:pageopacity="0.0"
     inkscape:pagecheckerboard="0"
     inkscape:deskcolor="#d1d1d1"
     inkscape:document-units="mm"
     showgrid="true"
     inkscape:zoom="1.4142136"
     inkscape:cx="649.83114"
     inkscape:cy="461.03362"
     inkscape:window-width="1920"
     inkscape:window-height="1009"
     inkscape:window-x="1912"
     inkscape:window-y="-8"
     inkscape:window-maximized="1"
     inkscape:current-layer="svg5"><inkscape:grid
       type="xygrid"
       id="grid5748"
       visible="false"
       snapvisiblegridlinesonly="false" /></sodipodi:namedview><defs
     id="defs2" /><path
     id="path1689"
     style="display:inline;fill:#5eadeb;fill-opacity:1;stroke-width:0.571737;stroke-linecap:round;stroke-linejoin:round"
     d="M 2.3812244,6.2001529e-7 A 2.3812459,2.3812459 0 0 0 0.67538437,0.72192062 l 0.57412003,0.19431 a 1.8520975,1.8520975 0 0 1 1.13172,-0.38706 1.8520975,1.8520975 0 0 1 1.85208,1.85207998 1.8520975,1.8520975 0 0 1 -0.26665,0.95808 l 0.45475,0.26976 a 2.3812459,2.3812459 0 0 0 0.34107,-1.22784 A 2.3812459,2.3812459 0 0 0 2.3812244,6.2001529e-7 Z M 0.05319437,1.0604006 c 0,0 1.79762003,1.649 2.02675003,1.78129 0.22913,0.13229 0.59772,0.0223 0.72244,-0.19379 0.12473,-0.21603 0.0359,-0.59066 -0.19327,-0.72295 -0.22914,-0.1323 -2.55592003,-0.86455 -2.55592003,-0.86455 z m 0.03,0.70384 A 2.3812459,2.3812459 0 0 0 -5.6273621e-6,2.3812506 2.3812459,2.3812459 0 0 0 0.34002437,3.6059806 l 0.45372,-0.27233 a 1.8520975,1.8520975 0 0 1 -0.26459,-0.9524 1.8520975,1.8520975 0 0 1 0.0134,-0.21342 z"
     inkscape:label="TrafficLow" /></svg>

<?xml version="1.0" encoding="UTF-8" standalone="no"?>
<!-- Created with Inkscape (http://www.inkscape.org/) -->

<svg
        width="4.7624798mm"
        height="3.6090901mm"
        viewBox="0 0 4.7624798 3.6090901"
        version="1.1"
        id="svg5"
        xml:space="preserve"
        xmlns="http://www.w3.org/2000/svg"
><defs
     id="defs2" /><path
     id="path1689"
     style="display:inline;fill:#5eadeb;fill-opacity:1;stroke-width:0.571737;stroke-linecap:round;stroke-linejoin:round"
     d="M 2.38123,0 A 2.3812459,2.3812459 0 0 0 0.67539,0.72192 L 1.24951,0.91623 A 1.8520975,1.8520975 0 0 1 2.38123,0.52917 1.8520975,1.8520975 0 0 1 4.23331,2.38125 1.8520975,1.8520975 0 0 1 3.96666,3.33933 L 4.42141,3.60909 A 2.3812459,2.3812459 0 0 0 4.76248,2.38125 2.3812459,2.3812459 0 0 0 2.38123,0 Z M 0.0532,1.0604 c 0,0 1.79762,1.649 2.02675,1.78129 C 2.30908,2.97398 2.67767,2.86399 2.80239,2.6479 2.92712,2.43187 2.83829,2.05724 2.60912,1.92495 2.37998,1.79265 0.0532,1.0604 0.0532,1.0604 Z m 0.03,0.70384 A 2.3812459,2.3812459 0 0 0 0,2.38125 2.3812459,2.3812459 0 0 0 0.34003,3.60598 L 0.79375,3.33365 A 1.8520975,1.8520975 0 0 1 0.52916,2.38125 1.8520975,1.8520975 0 0 1 0.54256,2.16783 Z" /></svg>
